lib/flags/ad-andorra.svg

<svg xmlns="http://www.w3.org/2000/svg" fill="none" aria-hidden="true" viewBox="0 0 42 30"><g id="Country=AD - Andorra, Size=sm (36x24)" filter="url(#filter0_dd_91_29984)"><g clip-path="url(#clip0_91_29984)"><g id="flag"><mask id="mask0_91_29984" width="36" height="24" x="3" y="2" maskUnits="userSpaceOnUse" style="mask-type:alpha"><rect id="mask" width="36" height="24" x="3" y="2" fill="white"/></mask><g mask="url(#mask0_91_29984)"><g id="contents"><path id="middle" fill="#FFD018" fill-rule="evenodd" d="M12 2H30V26H12V2Z" clip-rule="evenodd"/><path id="left" fill="#2E42A5" fill-rule="evenodd" d="M3 2H12V26H3V2Z" clip-rule="evenodd"/><path id="right" fill="#E31D1C" fill-rule="evenodd" d="M30 2H39V26H30V2Z" clip-rule="evenodd"/><g id="mark"><path id="bg" fill="#BF9937" fill-rule="evenodd" d="M21.3364 21.4235C21.5851 21.3614 21.7989 20.977 21.7989 20.977C21.7989 20.977 21.9613 21.0899 22.2187 21.2046C22.4761 21.3194 22.7439 20.977 22.7439 20.977C22.7439 20.977 23.1094 20.977 23.2698 20.5936C23.4301 20.2102 22.9498 20.0458 22.9498 20.0458C22.9498 20.0458 23.5112 19.5215 24.4592 19.5215C25.4072 19.5215 26.145 19.5215 26.7636 19.2882C27.3822 19.0548 27.9832 18.6535 28.2081 17.8202C28.4329 16.9868 27.7212 16.462 27.7212 16.462C27.7212 16.462 27.8788 16.5063 28.2081 16.2669C28.5373 16.0275 28.0065 15.2571 27.7212 15.2571C27.4359 15.2571 27.4018 15.3997 27.4018 15.3997C27.4018 15.3997 27.2255 15.2637 26.984 14.8013C26.7424 14.3388 27.2255 13.9329 27.2255 13.9329C27.2255 13.9329 27.4903 14.0677 27.7212 13.8453C27.9521 13.6228 27.6013 13.282 27.6013 13.282C27.6013 13.282 28.7128 12.9457 28.5521 11.6817C28.3914 10.4176 26.9256 10.4895 26.9256 10.4895C26.9256 10.4895 26.9701 10.2793 26.7636 10.1596C26.5571 10.0398 26.404 10.2793 26.404 10.2793C26.242 9.94594 26.7172 9.48985 27.0974 9.12485C27.2153 9.01174 27.324 8.90738 27.4018 8.81813C27.7308 8.44086 27.5243 7.97477 26.3223 7.46605C25.1203 6.95732 24.4641 7.64104 24.3677 7.88331C24.2714 8.12559 24.6443 8.27551 24.6443 8.27551C24.3401 8.5128 23.7519 8.6034 23.3508 8.43946C22.9498 8.27551 23.1276 7.77693 23.2105 7.64104C23.2195 7.62617 23.2316 7.60815 23.2455 7.58734C23.3589 7.41798 23.5959 7.06389 23.3508 6.71955C23.0757 6.33289 22.5993 6.33289 22.2187 6.55246C21.893 6.74038 21.43 6.84002 21.3033 6.86485C21.1766 6.84002 20.7136 6.74038 20.3879 6.55246C20.0073 6.33289 19.5309 6.33289 19.2558 6.71955C19.0107 7.06389 19.2477 7.41798 19.3611 7.58734C19.375 7.60815 19.3871 7.62617 19.3961 7.64104C19.479 7.77693 19.6568 8.27551 19.2558 8.43946C18.8547 8.6034 18.2665 8.5128 17.9623 8.27551C17.9623 8.27551 18.3352 8.12559 18.2389 7.88331C18.1425 7.64104 17.4863 6.95732 16.2843 7.46605C15.0823 7.97477 14.8758 8.44086 15.2048 8.81813C15.2826 8.90738 15.3913 9.01174 15.5092 9.12485C15.8894 9.48985 16.3646 9.94594 16.2026 10.2793C16.2026 10.2793 16.0495 10.0398 15.843 10.1596C15.6365 10.2793 15.681 10.4895 15.681 10.4895C15.681 10.4895 14.2152 10.4176 14.0545 11.6817C13.8938 12.9457 15.0053 13.282 15.0053 13.282C15.0053 13.282 14.6545 13.6228 14.8854 13.8453C15.1163 14.0677 15.3811 13.9329 15.3811 13.9329C15.3811 13.9329 15.8642 14.3388 15.6226 14.8013C15.3811 15.2637 15.2048 15.3997 15.2048 15.3997C15.2048 15.3997 15.1707 15.2571 14.8854 15.2571C14.6001 15.2571 14.0693 16.0275 14.3985 16.2669C14.7278 16.5063 14.8854 16.462 14.8854 16.462C14.8854 16.462 14.1737 16.9868 14.3985 17.8202C14.6234 18.6535 15.2244 19.0548 15.843 19.2882C16.4616 19.5215 17.1994 19.5215 18.1474 19.5215C19.0954 19.5215 19.6568 20.0458 19.6568 20.0458C19.6568 20.0458 19.1765 20.2102 19.3368 20.5936C19.4972 20.977 19.8627 20.977 19.8627 20.977C19.8627 20.977 20.1305 21.3194 20.3879 21.2046C20.6453 21.0899 20.8077 20.977 20.8077 20.977C20.8077 20.977 21.0215 21.3614 21.2702 21.4235V21.4319C21.2812 21.4319 21.2923 21.4312 21.3033 21.4298C21.3143 21.4312 21.3254 21.4319 21.3364 21.4319V21.4235Z" clip-rule="evenodd"/><path id="txt" fill="#805440" d="M16.624 17.9978L16.7423 17.7437C18.1009 18.2613 19.647 18.5205 21.3816 18.5205C23.1154 18.5205 24.6199 18.2616 25.8962 17.7449L26.0206 17.9965C24.7029 18.5301 23.1562 18.7962 21.3816 18.7962C19.608 18.7962 18.0218 18.5303 16.624 17.9978Z"/><g id="masked"><path id="mask_2" fill="#BF9937" fill-rule="evenodd" d="M17.0381 9.23267H21.2265H21.3325H25.521V16.2625C25.521 16.2625 25.5195 16.8829 24.7815 17.1542C24.0435 17.4255 23.1755 17.3284 23.1755 17.3284C23.1755 17.3284 22.345 17.1697 21.9065 17.3284C21.6377 17.4257 21.443 17.4738 21.3325 17.4965V17.515C21.3325 17.515 21.3145 17.513 21.2795 17.5067C21.2445 17.513 21.2265 17.515 21.2265 17.515V17.4965C21.116 17.4738 20.9213 17.4257 20.6526 17.3284C20.214 17.1697 19.3835 17.3284 19.3835 17.3284C19.3835 17.3284 18.5155 17.4255 17.7775 17.1542C17.0395 16.8829 17.0381 16.2625 17.0381 16.2625V9.23267Z" clip-rule="evenodd"/><mask id="mask1_91_29984" width="9" height="9" x="17" y="9" maskUnits="userSpaceOnUse" style="mask-type:alpha"><path id="mask_3" fill="white" fill-rule="evenodd" d="M17.0381 9.23267H21.2265H21.3325H25.521V16.2625C25.521 16.2625 25.5195 16.8829 24.7815 17.1542C24.0435 17.4255 23.1755 17.3284 23.1755 17.3284C23.1755 17.3284 22.345 17.1697 21.9065 17.3284C21.6377 17.4257 21.443 17.4738 21.3325 17.4965V17.515C21.3325 17.515 21.3145 17.513 21.2795 17.5067C21.2445 17.513 21.2265 17.515 21.2265 17.515V17.4965C21.116 17.4738 20.9213 17.4257 20.6526 17.3284C20.214 17.1697 19.3835 17.3284 19.3835 17.3284C19.3835 17.3284 18.5155 17.4255 17.7775 17.1542C17.0395 16.8829 17.0381 16.2625 17.0381 16.2625V9.23267Z" clip-rule="evenodd"/></mask><g mask="url(#mask1_91_29984)"><g id="squares"><rect id="Rectangle 74" width="4.11328" height="3.9" x="16.9194" y="9.14453" fill="#D00F3A"/><path id="Rectangle 74_2" fill="#FEDF00" fill-rule="evenodd" d="M21.4897 9.14453H25.7554V13.0445H21.4897V9.14453Z" clip-rule="evenodd"/><path id="Rectangle 74_3" fill="#FEDF00" fill-rule="evenodd" d="M21.4897 13.4778H25.603V17.5222H21.4897V13.4778Z" clip-rule="evenodd"/><rect id="Rectangle 74_4" width="4.11328" height="4.04444" x="16.9194" y="13.4778" fill="#FEDF00"/><path id="Path 306" fill="#D00F3A" fill-rule="evenodd" d="M24.5368 15.2985C24.5368 15.2985 24.728 15.1261 24.728 14.7191C24.728 14.3121 24.8891 14.0428 24.5368 14.0428C24.1846 14.0428 23.7063 14.0428 23.3695 14.0428C23.0327 14.0428 23.2057 14.2238 22.867 14.0428C22.5283 13.8619 22.2554 13.9195 22.2554 14.0428C22.2554 14.1662 22.5971 14.1119 22.5971 14.3625C22.5971 14.6131 22.7265 14.3952 22.7265 14.8468C22.7265 15.2985 22.7979 15.2227 22.8324 15.2227C22.867 15.2227 22.867 15.1411 22.867 15.0224C22.867 14.9036 22.8498 14.4247 22.9438 14.5719C23.0377 14.7191 23.0841 14.6496 23.1305 14.8169C23.1769 14.9841 23.3016 15.1468 23.2161 15.2227C23.1305 15.2985 22.9578 15.3636 23.0869 15.3636C23.2161 15.3636 23.4037 15.171 23.3099 14.8468C23.2161 14.5227 23.4264 14.8169 23.4264 14.8169C23.4264 14.8169 23.9239 14.915 23.9559 14.7803C23.9878 14.6457 24.0335 14.9091 24.1683 14.9091C24.3031 14.9091 24.0382 15.1802 23.9269 15.2227C23.8156 15.2652 23.9269 15.2985 23.9269 15.2985C23.9269 15.2985 24.0307 15.3743 24.0995 15.2985C24.1683 15.2227 24.4144 14.9746 24.4144 14.8468C24.4144 14.7191 24.5722 14.7958 24.5722 14.9091C24.5722 15.0224 24.4258 15.4287 24.4813 15.3636C24.5368 15.2985 24.5368 15.2985 24.5368 15.2985Z" clip-rule="evenodd"/><path id="Path 306_2" fill="#D00F3A" fill-rule="evenodd" d="M24.5368 16.8876C24.5368 16.8876 24.728 16.7152 24.728 16.3082C24.728 15.9012 24.8891 15.632 24.5368 15.632C24.1846 15.632 23.7063 15.632 23.3695 15.632C23.0327 15.632 23.2057 15.8129 22.867 15.632C22.5283 15.451 22.2554 15.5086 22.2554 15.632C22.2554 15.7553 22.5971 15.701 22.5971 15.9516C22.5971 16.2022 22.7265 15.9843 22.7265 16.436C22.7265 16.8876 22.7979 16.8118 22.8324 16.8118C22.867 16.8118 22.867 16.7302 22.867 16.6115C22.867 16.4927 22.8498 16.0138 22.9438 16.161C23.0377 16.3082 23.0841 16.2387 23.1305 16.406C23.1769 16.5733 23.3016 16.736 23.2161 16.8118C23.1305 16.8876 22.9578 16.9527 23.0869 16.9527C23.2161 16.9527 23.4037 16.7601 23.3099 16.436C23.2161 16.1118 23.4264 16.406 23.4264 16.406C23.4264 16.406 23.9239 16.5041 23.9559 16.3694C23.9878 16.2348 24.0335 16.4982 24.1683 16.4982C24.3031 16.4982 24.0382 16.7693 23.9269 16.8118C23.8156 16.8543 23.9269 16.8876 23.9269 16.8876C23.9269 16.8876 24.0307 16.9634 24.0995 16.8876C24.1683 16.8118 24.4144 16.5637 24.4144 16.436C24.4144 16.3082 24.5722 16.385 24.5722 16.4982C24.5722 16.6115 24.4258 17.0178 24.4813 16.9527C24.5368 16.8876 24.5368 16.8876 24.5368 16.8876Z" clip-rule="evenodd"/><path id="Combined Shape" fill="white" fill-rule="evenodd" d="M18.9861 12.2978C18.9861 12.4629 18.8916 12.589 18.6764 12.782L18.648 12.8073L18.5903 12.8588C18.559 12.887 18.5352 12.9094 18.5143 12.9304C18.3303 13.115 18.0086 12.9558 17.9263 12.7766C17.9131 12.7479 17.8485 12.6449 17.7435 12.4836L17.7378 12.4747L17.6758 12.3799L17.6195 12.2938C17.5783 12.2307 17.5566 12.1972 17.5459 12.1796C17.5384 12.1674 17.4959 12.1816 17.4212 12.2663C17.3927 12.2986 17.4511 12.409 17.6369 12.5856L17.5315 12.6899C17.273 12.4658 17.1479 12.3207 17.1479 12.22C17.1479 12.052 17.2999 11.9618 17.5829 11.9618C17.761 11.9618 17.856 12.0733 17.9986 12.3538L18.0349 12.4257C18.1052 12.5642 18.1503 12.6397 18.205 12.7012C18.2701 12.7742 18.3091 12.7708 18.3762 12.6955C18.4423 12.6214 18.5035 12.5059 18.5952 12.2978C18.6049 12.2758 18.6134 12.2573 18.6205 12.2418C18.6399 12.1994 18.6489 12.1796 18.6439 12.175C18.6395 12.1709 18.6246 12.1782 18.5967 12.1918C18.5869 12.1965 18.5756 12.2021 18.5625 12.2082L18.4914 12.2414L17.8456 10.8622L19.0675 9.54345V12.2898L18.9892 12.227C18.9873 12.2458 18.9861 12.2696 18.9861 12.2978ZM19.0733 12.2946L19.0675 12.2993V12.2898L19.0733 12.2946ZM19.0792 12.2898V12.2993L19.0733 12.2946L19.0792 12.2898ZM19.0792 9.54345L20.3011 10.8622L19.6553 12.2414L19.5842 12.2082C19.5338 12.1847 19.5087 12.1695 19.5028 12.175C19.4959 12.1814 19.5152 12.2158 19.5514 12.2978C19.6432 12.5059 19.7044 12.6214 19.7704 12.6955C19.8376 12.7708 19.8766 12.7742 19.9416 12.7012C19.9964 12.6397 20.0415 12.5642 20.1117 12.4257L20.1481 12.3538C20.2906 12.0733 20.3857 11.9618 20.5637 11.9618C20.8468 11.9618 20.9987 12.052 20.9987 12.22C20.9987 12.3207 20.8737 12.4658 20.6151 12.6899L20.5098 12.5856C20.6956 12.409 20.7539 12.2986 20.7255 12.2663C20.6508 12.1816 20.6082 12.1674 20.6008 12.1796C20.59 12.1972 20.5684 12.2307 20.5271 12.2938L20.4708 12.3799L20.4089 12.4747L20.4031 12.4836C20.2982 12.6449 20.2336 12.7479 20.2204 12.7766C20.138 12.9558 19.8163 13.115 19.6324 12.9304C19.6115 12.9094 19.5876 12.887 19.5563 12.8588C19.5464 12.8498 19.5199 12.8263 19.4987 12.8073C19.4856 12.7957 19.4744 12.7857 19.4703 12.782C19.255 12.589 19.1606 12.4629 19.1606 12.2978C19.1606 12.2696 19.1594 12.2458 19.1574 12.227L19.0792 12.2898V9.54345ZM19.0792 9.54345L19.0733 9.5371L19.0792 9.53076V9.54345ZM19.0733 9.5371L19.0675 9.54345V9.53076L19.0733 9.5371ZM18.9979 12.1838L19.0002 12.1804L18.9995 12.1817L18.9979 12.1838Z" clip-rule="evenodd"/><path id="Combined Shape_2" fill="#FEDF00" fill-rule="evenodd" d="M19.0633 12.0498V9.823L20.1224 10.888L19.5783 12.0498C19.3778 11.9877 19.3076 12.1192 19.4109 12.3534C19.4725 12.493 19.5211 12.5935 19.5685 12.6711C19.3882 12.5086 19.313 12.4069 19.313 12.2977C19.313 12.2094 19.3038 12.1486 19.2797 12.1086C19.2683 12.0898 19.1732 12.0717 19.1121 12.0601C19.0884 12.0556 19.0698 12.052 19.0633 12.0498ZM18.5684 12.0498L18.0244 10.888L19.0578 9.83118V12.058C19.051 12.0603 19.0335 12.0633 19.0116 12.0671C18.958 12.0763 18.8783 12.0901 18.8671 12.1086C18.843 12.1486 18.8338 12.2094 18.8338 12.2977C18.8338 12.4069 18.7586 12.5086 18.5782 12.6711C18.6257 12.5935 18.6743 12.493 18.7358 12.3534C18.8391 12.1192 18.7689 11.9877 18.5684 12.0498Z" clip-rule="evenodd"/></g><path id="red" fill="#D00F3A" fill-rule="evenodd" d="M17.8335 13.4778H17.3765V17.5222H17.8335V13.4778ZM18.7475 13.4778H18.2905V17.5222H18.7475V13.4778ZM19.2046 13.4778H19.6616V17.5222H19.2046V13.4778ZM20.5757 13.4778H20.1186V17.5222H20.5757V13.4778Z" clip-rule="evenodd"/><path id="red_2" fill="#D00F3A" fill-rule="evenodd" d="M22.5562 9.14453H22.0991V13.189H22.5562V9.14453ZM23.4702 9.14453H23.0132V13.189H23.4702V9.14453ZM23.9273 9.14453H24.3843V13.189H23.9273V9.14453ZM25.2983 9.14453H24.8413V13.189H25.2983V9.14453Z" clip-rule="evenodd"/></g></g></g></g></g></g></g></g><defs><filter id="filter0_dd_91_29984" width="42" height="30" x="0" y="0" color-interpolation-filters="sRGB" filterUnits="userSpaceOnUse"><feFlood flood-opacity="0" result="BackgroundImageFix"/><feColorMatrix in="SourceAlpha" result="hardAlpha" values="0 0 0 0 0 0 0 0 0 0 0 0 0 0 0 0 0 0 127 0"/><feOffset dy="1"/><feGaussianBlur stdDeviation="1"/><feColorMatrix values="0 0 0 0 0.0627451 0 0 0 0 0.0941176 0 0 0 0 0.156863 0 0 0 0.06 0"/><feBlend in2="BackgroundImageFix" result="effect1_dropShadow_91_29984"/><feColorMatrix in="SourceAlpha" result="hardAlpha" values="0 0 0 0 0 0 0 0 0 0 0 0 0 0 0 0 0 0 127 0"/><feOffset dy="1"/><feGaussianBlur stdDeviation="1.5"/><feColorMatrix values="0 0 0 0 0.0627451 0 0 0 0 0.0941176 0 0 0 0 0.156863 0 0 0 0.1 0"/><feBlend in2="effect1_dropShadow_91_29984" result="effect2_dropShadow_91_29984"/><feBlend in="SourceGraphic" in2="effect2_dropShadow_91_29984" result="shape"/></filter><clipPath id="clip0_91_29984"><rect width="36" height="24" x="3" y="2" fill="white" rx="2"/></clipPath></defs></svg>

<svg xmlns="http://www.w3.org/2000/svg" fill="none" aria-hidden="true" viewBox="0 0 42 30"><g filter="url(#a)"><g clip-path="url(#b)"><mask id="c" width="36" height="24" x="3" y="2" maskUnits="userSpaceOnUse" style="mask-type:alpha"><path fill="#fff" d="M3 2h36v24H3z"/></mask><g mask="url(#c)"><path fill="#FFD018" fill-rule="evenodd" d="M12 2h18v24H12V2Z" clip-rule="evenodd"/><path fill="#2E42A5" fill-rule="evenodd" d="M3 2h9v24H3V2Z" clip-rule="evenodd"/><path fill="#E31D1C" fill-rule="evenodd" d="M30 2h9v24h-9V2Z" clip-rule="evenodd"/><path fill="#BF9937" fill-rule="evenodd" d="M21.336 21.424c.25-.063.463-.447.463-.447s.162.113.42.228c.257.114.525-.228.525-.228s.365 0 .526-.383c.16-.384-.32-.548-.32-.548s.561-.524 1.51-.524c.947 0 1.685 0 2.304-.234.618-.233 1.22-.634 1.444-1.468.225-.833-.487-1.358-.487-1.358s.158.044.487-.195c.33-.24-.201-1.01-.487-1.01-.285 0-.32.143-.32.143s-.175-.136-.417-.599c-.242-.462.241-.868.241-.868s.265.135.496-.088c.231-.222-.12-.563-.12-.563s1.112-.336.951-1.6c-.16-1.264-1.626-1.193-1.626-1.193s.044-.21-.162-.33c-.207-.12-.36.12-.36.12-.162-.333.313-.79.693-1.154a5.31 5.31 0 0 0 .305-.307c.329-.377.122-.843-1.08-1.352-1.202-.509-1.858.175-1.954.417-.097.243.276.393.276.393-.304.237-.892.327-1.293.163-.401-.163-.223-.662-.14-.798a.772.772 0 0 1 .035-.054c.113-.169.35-.523.105-.867-.275-.387-.752-.387-1.132-.168-.326.188-.789.288-.916.313-.126-.025-.59-.125-.915-.313-.38-.22-.857-.22-1.132.168-.245.344-.008.698.105.867l.035.054c.083.136.26.635-.14.798-.401.164-.99.074-1.294-.163 0 0 .373-.15.277-.393-.097-.242-.753-.926-1.955-.417-1.202.509-1.408.975-1.08 1.352.079.09.187.194.305.307.38.365.856.82.694 1.154 0 0-.154-.24-.36-.12-.207.12-.162.33-.162.33s-1.466-.071-1.626 1.193c-.161 1.264.95 1.6.95 1.6s-.35.34-.12.563c.231.223.496.088.496.088s.483.406.242.868c-.242.463-.418.599-.418.599s-.034-.143-.32-.143c-.285 0-.816.77-.486 1.01.329.24.486.195.486.195s-.711.525-.486 1.358c.224.834.825 1.235 1.444 1.468.619.233 1.356.233 2.304.233.948 0 1.51.525 1.51.525s-.48.164-.32.548c.16.383.526.383.526.383s.268.342.525.228c.257-.115.42-.228.42-.228s.213.384.462.447v.008c.011 0 .022 0 .033-.002a.263.263 0 0 0 .033.002v-.008Z" clip-rule="evenodd"/><path fill="#805440" d="m16.624 17.998.118-.254c1.359.517 2.905.776 4.64.776 1.733 0 3.238-.258 4.514-.775l.125.252c-1.318.533-2.865.8-4.64.8-1.773 0-3.36-.267-4.757-.8Z"/><path fill="#BF9937" fill-rule="evenodd" d="M17.038 9.233h8.483v7.03s-.002.62-.74.891c-.737.271-1.605.174-1.605.174s-.831-.158-1.27 0a4.199 4.199 0 0 1-.573.169v.018l-.053-.008a.893.893 0 0 1-.053.008v-.018a4.194 4.194 0 0 1-.574-.169c-.439-.158-1.27 0-1.27 0s-.867.098-1.605-.174c-.738-.271-.74-.892-.74-.892v-7.03Z" clip-rule="evenodd"/><mask id="d" width="9" height="9" x="17" y="9" maskUnits="userSpaceOnUse" style="mask-type:alpha"><path fill="#fff" fill-rule="evenodd" d="M17.038 9.233h8.483v7.03s-.002.62-.74.891c-.737.271-1.605.174-1.605.174s-.831-.158-1.27 0a4.199 4.199 0 0 1-.573.169v.018l-.053-.008a.893.893 0 0 1-.053.008v-.018a4.194 4.194 0 0 1-.574-.169c-.439-.158-1.27 0-1.27 0s-.867.098-1.605-.174c-.738-.271-.74-.892-.74-.892v-7.03Z" clip-rule="evenodd"/></mask><g mask="url(#d)"><path fill="#D00F3A" d="M16.919 9.145h4.113v3.9h-4.113z"/><path fill="#FEDF00" fill-rule="evenodd" d="M21.49 9.145h4.265v3.9H21.49v-3.9Zm0 4.333h4.113v4.044H21.49v-4.044Z" clip-rule="evenodd"/><path fill="#FEDF00" d="M16.919 13.478h4.113v4.044h-4.113z"/><path fill="#D00F3A" fill-rule="evenodd" d="M24.537 15.299s.191-.173.191-.58.161-.676-.191-.676h-1.168c-.336 0-.163.18-.502 0-.339-.181-.612-.123-.612 0s.342.069.342.32c0 .25.13.032.13.484 0 .452.07.376.105.376.035 0 .035-.082.035-.2 0-.12-.017-.598.077-.451.094.147.14.078.187.245.046.167.17.33.085.406-.085.075-.258.14-.13.14.13 0 .318-.192.224-.516s.116-.03.116-.03.498.098.53-.037c.032-.134.078.13.212.13.135 0-.13.27-.241.313-.111.042 0 .075 0 .075s.104.076.172 0c.07-.075.315-.323.315-.451s.158-.051.158.062c0 .113-.146.52-.09.455l.055-.066Zm0 1.589s.191-.173.191-.58.161-.676-.191-.676h-1.168c-.336 0-.163.18-.502 0-.339-.181-.612-.123-.612 0s.342.069.342.32c0 .25.13.032.13.484 0 .452.07.376.105.376.035 0 .035-.082.035-.2 0-.12-.017-.598.077-.451.094.147.14.078.187.245.046.167.17.33.085.406-.085.076-.258.14-.13.14.13 0 .318-.192.224-.516s.116-.03.116-.03.498.098.53-.037c.032-.134.078.13.212.13.135 0-.13.27-.241.313-.111.042 0 .076 0 .076s.104.075.172 0c.07-.076.315-.324.315-.452s.158-.051.158.062c0 .113-.146.52-.09.455l.055-.065Z" clip-rule="evenodd"/><path fill="#fff" fill-rule="evenodd" d="M18.986 12.298c0 .165-.094.291-.31.484l-.028.025-.058.052c-.031.028-.055.05-.076.071-.184.185-.505.026-.588-.153a4.535 4.535 0 0 0-.182-.293l-.006-.01-.062-.094-.056-.086a5.656 5.656 0 0 1-.074-.114c-.008-.013-.05.002-.125.086-.028.033.03.143.216.32l-.105.104c-.259-.224-.384-.37-.384-.47 0-.168.152-.258.435-.258.178 0 .273.111.416.392l.036.072c.07.138.115.214.17.275.065.073.104.07.171-.006.066-.074.127-.19.22-.397l.024-.056c.02-.043.029-.062.024-.067-.004-.004-.02.003-.047.017l-.035.016-.07.033-.646-1.379 1.221-1.319v2.747l-.078-.063a.718.718 0 0 0-.003.07Zm.087-.003-.006.004v-.01l.006.006Zm.006-.005v.01l-.006-.005.006-.005Zm0-2.747 1.222 1.32-.646 1.378-.07-.033c-.051-.023-.076-.039-.082-.033-.007.006.012.04.048.123.092.208.153.323.22.397.067.076.106.08.17.006.055-.061.1-.137.17-.275l.037-.072c.143-.28.238-.392.416-.392.283 0 .435.09.435.258 0 .1-.125.246-.384.47l-.105-.104c.186-.177.244-.287.215-.32-.074-.084-.117-.099-.124-.086l-.074.114-.056.086-.062.095-.006.009a4.56 4.56 0 0 0-.183.293c-.082.179-.404.338-.588.153a1.918 1.918 0 0 0-.076-.071l-.057-.052a5.185 5.185 0 0 1-.029-.025c-.215-.193-.31-.32-.31-.484a.685.685 0 0 0-.003-.071l-.078.063V9.543Zm0 0-.006-.006.006-.006v.012Zm-.006-.006-.006.006v-.012l.006.006Zm-.075 2.647L19 12.18v.002l-.002.002Z" clip-rule="evenodd"/><path fill="#FEDF00" fill-rule="evenodd" d="M19.063 12.05V9.823l1.06 1.065-.545 1.162c-.2-.062-.27.07-.167.303.061.14.11.24.157.318-.18-.162-.255-.264-.255-.373 0-.089-.01-.15-.033-.19-.012-.018-.107-.036-.168-.048a.594.594 0 0 1-.049-.01Zm-.495 0-.544-1.162 1.034-1.057v2.227l-.046.01c-.054.008-.134.022-.145.04-.024.04-.033.101-.033.19 0 .109-.075.21-.256.373.048-.077.096-.178.158-.318.103-.234.033-.365-.168-.303Z" clip-rule="evenodd"/><path fill="#D00F3A" fill-rule="evenodd" d="M17.834 13.478h-.457v4.044h.457v-4.044Zm.913 0h-.456v4.044h.456v-4.044Zm.458 0h.457v4.044h-.457v-4.044Zm1.37 0h-.456v4.044h.457v-4.044Zm1.981-4.333H22.1v4.044h.457V9.145Zm.914 0h-.457v4.044h.457V9.145Zm.457 0h.457v4.044h-.457V9.145Zm1.371 0h-.457v4.044h.457V9.145Z" clip-rule="evenodd"/></g></g></g></g><defs><clipPath id="b"><rect width="36" height="24" x="3" y="2" fill="#fff" rx="2"/></clipPath><filter id="a" width="42" height="30" x="0" y="0" color-interpolation-filters="sRGB" filterUnits="userSpaceOnUse"><feFlood flood-opacity="0" result="BackgroundImageFix"/><feColorMatrix in="SourceAlpha" result="hardAlpha" values="0 0 0 0 0 0 0 0 0 0 0 0 0 0 0 0 0 0 127 0"/><feOffset dy="1"/><feGaussianBlur stdDeviation="1"/><feColorMatrix values="0 0 0 0 0.0627451 0 0 0 0 0.0941176 0 0 0 0 0.156863 0 0 0 0.06 0"/><feBlend in2="BackgroundImageFix" result="effect1_dropShadow_91_29984"/><feColorMatrix in="SourceAlpha" result="hardAlpha" values="0 0 0 0 0 0 0 0 0 0 0 0 0 0 0 0 0 0 127 0"/><feOffset dy="1"/><feGaussianBlur stdDeviation="1.5"/><feColorMatrix values="0 0 0 0 0.0627451 0 0 0 0 0.0941176 0 0 0 0 0.156863 0 0 0 0.1 0"/><feBlend in2="effect1_dropShadow_91_29984" result="effect2_dropShadow_91_29984"/><feBlend in="SourceGraphic" in2="effect2_dropShadow_91_29984" result="shape"/></filter></defs></svg>
